web/ui/src/assets/svgs/process-template/process-template.svg

<svg height="54" viewBox="0 0 54 54" width="54" xmlns="http://www.w3.org/2000/svg"><g fill="none" fill-rule="evenodd"><circle cx="27" cy="27" fill="#eefaff" r="27"/><g fill-rule="nonzero" transform="translate(7 7)"><path d="m0 0h40v40h-40z" fill="#fff" opacity="0"/><path d="m8.12 20.7104688h.1zm23.44 9.4095312h3.76c.8 0 1.52.64 1.52 1.52v3.76c0 .8-.64 1.52-1.52 1.52h-3.76c-.8 0-1.52-.64-1.52-1.52v-1.52h-.72c-2.08 0-3.76-1.68-3.76-3.76v-6h-3.76v7.52c0 .8-.64 1.52-1.52 1.52h-15.76c-.8 0-1.52-.64-1.52-1.52v-15.84c0-.8.64-1.52 1.52-1.52h7.52v-6.72h-7.52c-.88 0-1.52-.64-1.52-1.52v-1.52c0-.8.64-1.52 1.52-1.52h30.8c.8 0 1.52.64 1.52 1.52v1.52c0 .8-.64 1.52-1.52 1.52h-22.56v6.8h7.52c.8 0 1.52.64 1.52 1.52v7.44h3.76v-6c0-2.08 1.68-3.76 3.76-3.76h.72v-1.52c0-.8.64-1.52 1.52-1.52h3.76c.8 0 1.52.64 1.52 1.52v3.76c0 .8-.64 1.52-1.52 1.52h-3.76c-.8 0-1.52-.64-1.52-1.52v-1.52h-.72c-1.68 0-3.04 1.36-3.04 3.04v6h3.76v-1.52c0-.8.64-1.52 1.52-1.52h3.76c.8 0 1.52.64 1.52 1.52v3.76c0 .8-.64 1.52-1.52 1.52h-3.76c-.8 0-1.52-.64-1.52-1.52v-1.44h-3.76v6c0 1.68 1.36 3.04 3.04 3.04h.72v-1.52c0-.88.72-1.52 1.52-1.52z" fill="#4988fd"/></g></g></svg>

<?xml version="1.0" encoding="UTF-8"?>
<svg width="54px" height="54px" viewBox="0 0 54 54" version="1.1" xmlns="http://www.w3.org/2000/svg" xmlns:xlink="http://www.w3.org/1999/xlink">
    <title>编组 4</title>
    <g id="页面-1" stroke="none" stroke-width="1" fill="none" fill-rule="evenodd">
        <g id="建木持续集成平台-新建1备份" transform="translate(-180.000000, -154.000000)">
            <g id="编组-4" transform="translate(180.000000, 154.000000)">
                <circle id="椭圆形" fill="#EEFAFF" cx="27" cy="27" r="27"></circle>
                <g id="子流程" transform="translate(7.000000, 7.000000)" fill-rule="nonzero">
                    <rect id="矩形" fill="#FFFFFF" opacity="0" x="0" y="0" width="40" height="40"></rect>
                    <path d="M8.12,20.7104688 L8.12,20.7104688 L8.12,20.7104688 L8.22,20.7104688 L8.12,20.7104688 Z M31.56,30.12 L35.32,30.12 C36.12,30.12 36.84,30.76 36.84,31.64 L36.84,35.4 C36.84,36.2 36.2,36.92 35.32,36.92 L31.56,36.92 C30.76,36.92 30.04,36.28 30.04,35.4 L30.04,33.88 L29.32,33.88 C27.24,33.88 25.56,32.2 25.56,30.12 L25.56,24.12 L21.8,24.12 L21.8,31.64 C21.8,32.44 21.16,33.16 20.28,33.16 L4.52,33.16 C3.72,33.16 3,32.52 3,31.64 L3,15.8 C3,15 3.64,14.28 4.52,14.28 L12.04,14.28 L12.04,7.56 L4.52,7.56 C3.64,7.56 3,6.92 3,6.04 L3,4.52 C3,3.72 3.64,3 4.52,3 L35.32,3 C36.12,3 36.84,3.64 36.84,4.52 L36.84,6.04 C36.84,6.84 36.2,7.56 35.32,7.56 L12.76,7.56 L12.76,14.36 L20.28,14.36 C21.08,14.36 21.8,15 21.8,15.88 L21.8,23.32 L25.56,23.32 L25.56,17.32 C25.56,15.24 27.24,13.56 29.32,13.56 L30.04,13.56 L30.04,12.04 C30.04,11.24 30.68,10.52 31.56,10.52 L35.32,10.52 C36.12,10.52 36.84,11.16 36.84,12.04 L36.84,15.8 C36.84,16.6 36.2,17.32 35.32,17.32 L31.56,17.32 C30.76,17.32 30.04,16.68 30.04,15.8 L30.04,14.28 L29.32,14.28 C27.64,14.28 26.28,15.64 26.28,17.32 L26.28,23.32 L30.04,23.32 L30.04,21.8 C30.04,21 30.68,20.28 31.56,20.28 L35.32,20.28 C36.12,20.28 36.84,20.92 36.84,21.8 L36.84,25.56 C36.84,26.36 36.2,27.08 35.32,27.08 L31.56,27.08 C30.76,27.08 30.04,26.44 30.04,25.56 L30.04,24.12 L26.28,24.12 L26.28,30.12 C26.28,31.8 27.64,33.16 29.32,33.16 L30.04,33.16 L30.04,31.64 C30.04,30.76 30.76,30.12 31.56,30.12 Z" id="形状" fill="#4988FD"></path>
                </g>
            </g>
        </g>
    </g>
</svg>
